icons/fonts-filled.svg

<svg xmlns="http://www.w3.org/2000/svg" width="256" height="256" fill="none"><path fill="#000B1D" d="M196 0H60C26.863 0 0 26.863 0 60v136c0 33.137 26.863 60 60 60h136c33.137 0 60-26.863 60-60V60c0-33.137-26.863-60-60-60"/><path fill="#fff" d="M140.05 108.5c-5.6 18.78-10.28 36.91-15.88 54.62-3.18 10-6.66 19.53-11.05 25.59-4.85 6.81-13.93 13.33-24.83 13.33-7.72 0-15.29-3.63-15.29-11.66 0-5 5.15-9.69 9.24-9.69a4.61 4.61 0 0 1 4.24 2.42c3.79 6.81 7.42 10.75 9.09 10.75s3-2.27 5.75-12.11l19.8-73.25h-14.23c-1.06-3.18.45-7.12 2.27-7.87h14.23c2.73-8.78 5.92-17.61 10.47-25.63 6.81-12.27 17.72-22 32.71-22 11.36 0 16.05 5.45 16.05 12.42-.15 7.42-6.66 11.2-9.69 11.2-2.42 0-3.63-1.82-4.39-4.39-2.57-9.69-5.91-12.57-7.87-12.57s-5 3.63-8.33 11.2c-4.39 9.54-7.29 19.73-10 29.72h17.24c1.06 2.12.15 6.66-2.42 7.87z"/></svg>

<svg width="256" height="256" viewBox="0 0 256 256" fill="none" xmlns="http://www.w3.org/2000/svg">
<path d="M196 0H60C26.8629 0 0 26.8629 0 60V196C0 229.137 26.8629 256 60 256H196C229.137 256 256 229.137 256 196V60C256 26.8629 229.137 0 196 0Z" fill="#000B1D"/>
<path d="M140.05 108.5C134.45 127.28 129.77 145.41 124.17 163.12C120.99 173.12 117.51 182.65 113.12 188.71C108.27 195.52 99.19 202.04 88.29 202.04C80.57 202.04 73 198.41 73 190.38C73 185.38 78.15 180.69 82.24 180.69C83.1024 180.656 83.9571 180.865 84.7066 181.293C85.4562 181.72 86.0707 182.35 86.48 183.11C90.27 189.92 93.9 193.86 95.57 193.86C97.24 193.86 98.57 191.59 101.32 181.75L121.12 108.5H106.89C105.83 105.32 107.34 101.38 109.16 100.63H123.39C126.12 91.85 129.31 83.02 133.86 75C140.67 62.73 151.58 53 166.57 53C177.93 53 182.62 58.45 182.62 65.42C182.47 72.84 175.96 76.62 172.93 76.62C170.51 76.62 169.3 74.8 168.54 72.23C165.97 62.54 162.63 59.66 160.67 59.66C158.71 59.66 155.67 63.29 152.34 70.86C147.95 80.4 145.05 90.59 142.34 100.58H159.58C160.64 102.7 159.73 107.24 157.16 108.45L140.05 108.5Z" fill="white"/>
</svg>
